match-match-game/assets/images/ok.svg

<svg width="40" height="40" viewBox="0 0 40 40" fill="none" xmlns="http://www.w3.org/2000/svg">
<mask id="mask0" mask-type="alpha" maskUnits="userSpaceOnUse" x="11" y="11" width="18" height="18">
<path fill-rule="evenodd" clip-rule="evenodd" d="M13 11H27C28.11 11 29 11.9 29 13V27C29 28.1 28.11 29 27 29H13C11.89 29 11 28.1 11 27V13C11 11.9 11.89 11 13 11ZM13 20L18 25L27 16L25.59 14.58L18 22.17L14.41 18.59L13 20Z" fill="white"/>
</mask>
<g mask="url(#mask0)">
<rect x="8" y="8" width="24" height="24" fill="#018786"/>
</g>
<path fill-rule="evenodd" clip-rule="evenodd" d="M20 40C31.0457 40 40 31.0457 40 20C40 8.9543 31.0457 0 20 0C8.9543 0 0 8.9543 0 20C0 31.0457 8.9543 40 20 40Z" fill="#018786" fill-opacity="0.08"/>
</svg>

<svg width="40" height="40" fill="none" xmlns="http://www.w3.org/2000/svg"><mask id="a" maskUnits="userSpaceOnUse" x="11" y="11" width="18" height="18"><path fill-rule="evenodd" clip-rule="evenodd" d="M13 11h14a2 2 0 012 2v14a2 2 0 01-2 2H13a2 2 0 01-2-2V13a2 2 0 012-2zm0 9l5 5 9-9-1.41-1.42L18 22.17l-3.59-3.58L13 20z" fill="#fff"/></mask><g mask="url(#a)"><path fill="#018786" d="M8 8h24v24H8z"/></g><path fill-rule="evenodd" clip-rule="evenodd" d="M20 40c11.046 0 20-8.954 20-20S31.046 0 20 0 0 8.954 0 20s8.954 20 20 20z" fill="#018786" fill-opacity=".08"/></svg>
